X:1
T:The Uncloudy Day
M:2/4
L:1/8
K:G
 d3 e| d2B-A G2 B2| G4 d3 e| d2 BA G2 GB| A4- A z DE| GG GE G2 BA|\
 G2 E2 D4|
M:2/4
 d3 e| dB GA| B2 AA| G4| z2 D3/2 E/2| G3/2 G/2 G3/2 G/2| G2 B3/2 A/2|\
 G2 E2| D2 D3/2 E/2| G3/2 G/2 G3/2 G/2| B2 B3/2 B/2| d6| D3/2 D/2 G3/2 G/2|\
 G3/2 G/2 G2| B3/2 A/2 G2| E2 D2| d3/2 e/2 d3/2 B/2| GA A/2 B3/2| A2 G4|\
 z2||
